X:1
T:The Andalusian merchant - Weelkes
T:#
%%score { 1 | 2 } 3 { 4 | 5 } 6
L:1/8
Q:1/4=100
M:2/2
K:Eb
V:1 treble nm="Soprano 1" snm="S"
V:2 treble 
V:3 treble nm="Alto" snm="A"
V:4 treble-8 nm="Tenor 1" snm="T"
V:5 treble-8 
V:6 bass nm="Bass" snm="B"
V:1
"^The Andalusian merchant" z8 | z4!f! e4 | B3 A B2 c2 | d8 | %4
w: |The|An- da- lu- sian|mer-|
 c2 e4"^Thomas Weelkes\n(c.1576-1623)" (dc) |[M:2/2] B2 z2 z2 A2- | A2 (GF) E2 z2 | z8 | %8
w: chant, that re\- *|turns, that|* re\- * turns||
 z2 B2- BB B2 | e3 d c2 c2 | f2 f2 dd e2 | B2 G2 c2 c2 | z4 B3 B | B2 e3 d c2 | c2 f4 d2 | %15
w: La\- * den with|co- chi- neal and|Chi- na dish- es, and|Chi- na dish- es,|la- den|with co- chi- neal|and Chi- na|
 ff d2 e2 B2 | c2 c2 z2 c2 | B2 =A2 B4- | B2 B2 z4 | z4 z2!mf! B2 | B2 =A2 B4- | B2 c4 f2- | %22
w: dish- es, and Chi- na|dish- es, and|Chi- na dish\-|* es,|Re-|ports in Spain|* how strange\-|
 f2 _d2 c4 | B4 c2 c2- | c2 =B4 _B2 | c6 c2 | c4 z2 e2- | e2 d4 _d2 | c3 c c4 | z8 | %30
w: * ly Fo-|go burns, how|* strange- ly|Fo- go|burns, how|* strange- ly|Fo- go burns,||
 z2 f2 =e2 _e2 | d2 _d2 c4- |"^/" c2 c2 =A4 | z4!f! B4 | e4 c4 | d3 d fedc | B2 B2 z2 ee | %37
w: how strange, how|strange- ly Fo\-|* go burns|A-|midst an|o- cean full of fly- ing|fish- es, fly- ing|
 B2 c2 edcB | A2 A2 z2 EF | GA G2 F2 Bc | de f2 B4 | z2 G2 G3 G | A8 | A8 | z4!mf! G4- | G4 G4 | %46
w: fish- es, full of fly- ing|fish- es, full of|fly- ing fish- es, full of|fly- ing fish- es.|These things seem|won-|drous,|yet|* more|
 =B8- | B4 =B4 | c4 _d2 d2 | c6 c2 | B8 | z8 | z4 z2!mp! B2 | c2 d2 e3 e | d8 | z4 c4 | =A4 B4- | %57
w: won\-|* drous|I, yet more|won- drous|I,||Whose|heart with fear doth|freeze,|with|love doth|
 (B4 =A4) | B4 z2 F2 | F2 G2 A3 A | G8 | z8 | z8 | z4!p! G4 | c8 | B8- | B8 | !fermata!B8 |] %68
w: |fry, whose|heart with fear doth|freeze,|||with|love|doth||fry.|
V:2
 z8 | z4!f! E4 | G3 F G2 A2 | B4 B4 | z4 z2 B2- |[M:2/2] B2 (AG) F4 | z2 c2- cc c2 | f3 e d2 d2 | %8
w: |The|An- da- lu- sian|mer- chant,|that|* re\- * turns|La\- * den with|co- chi- neal and|
 f2 d2 ee E2- | EE E2 A3 G | F2 F2 B2 B2 | GG E3 E E2 | A3 G F2 F2 | G2 G2 c3 B | =A2 A2 BB z2 | %15
w: Chi- na dish- es, la\-|* den with co- chi-|neal and Chi- na|dish- es, la- den with|co- chi- neal and|Chi- na dish- es,|Chi- na dish- es,|
 B3 B B2 e2- | ed c2 c2 f2- | f2 c2 d2 e2 | E2 F2 z2!mf! G2 | G2 F2 G4 | E4 F3 F | G2 G2 c4 | %22
w: la- den with co\-|* chi- neal and Chi\-|* na dish- es,|dish- es, Re-|ports in Spain,|re- ports in|Spain how strange-|
 B6 A2- | A2 G2 A4 | z4 F4 | =E2 _E2 E4- | !courtesy!_E2 C2 G4 | z4 z2 F2- | F2 =A4 _A2 | B4 B4 | %30
w: ly Fo\-|* go burns,|how|strange- ly Fo\-|* go burns,|how|* strange- ly|Fo- go|
 c8 | z8 | z8 | z4!f! G4 | G4 =A4 | B3 B z2 fe | dc d2 e2 z2 | z2 AB cd e2- | e2 c2 BAGF | %39
w: burns,|||A-|midst an|o- cean full of|fly- ing fish- es,|full of fly- ing fish\-|* es, full of fly- ing,|
 E2 Bc de f2- | f2 d2 z2 B2 | B6 B2 | _d8 | c8 | z4!mf! c4- | c4 c4 | d8- | d4 d4 | c4 B2 B2- | %49
w: fish, full of fly- ing fish\-|* es. These|things seem|won-|drous,|yet|* more|won\-|* drous|I, more won\-|
 B2 (=AG A4) | B4 F4 | F2 G2 A3 A | G8 | z8 | z4!mp! B4 | G4 z2 G2 | C4 F4 | F8- | F8 | z8 | z8 | %61
w: * drous * *|I, Whose|heart with fear doth|freeze,||with|love, with|love doth|fry,||||
 z8 | z4!p! A4 | G8 | z4 F4 | D4 (E4 | F8) | !fermata!G8 |] %68
w: |with|love,|with|love doth||fry.|
V:3
 z4!f! B4 | E3 D E2 F2 | E2 E,2 z2 E2 | F3 E F2 G2 | A2 G2 E2 (BA) |[M:2/2] G2 (FE) (D2 CB,) | %6
w: The|An- da- lu \-sian|mer- chant, the|An- da- lu- sian|mer- chant, that re\- *|turns, that * re\- * *|
 C6 E2 | D4 F3 F | F2 B3 A G2 | G2 c4 F2 | DD z2 z4 | E3 E E2 A2- | AG F2 F2 B2- | B2 E4 G2 | %14
w: turns, re-|turns La- den|with co- chi- neal|and Chi- na|dish- es,|la- den with co\-|* chi- neal and Chi\-|* na dish-|
 F2 z2 F3 F | F2 B3 A G2- | G2 G2 F2 F2 | DD z2 z4 | z4 z2!mf! E2 | E2 D2 E4 | C4 B,4 | z8 | z8 | %23
w: es, la- den|with co- chi- neal|* and Chi- na|dish- es,|Re-|ports in Spain,|in Spain|||
 z8 | z8 | z4 z2 C2- | C2 =E4 _E2 | F4 F4 | F4 z4 | z4 z2 B2 | =A2 _A2 G4- | G2 F2 =E2 F2- | %32
w: ||how|* strange- ly|Fo- go|burns,|how|strange- ly Fo\-|* go burns, Fo\-|
 F2 =E2 F4 | z4!f! E4 | G4 F4 | F6 F2 | z4 BAGF | E2 A,2 z2 A,B, | CD E2 E2 BA | GF E2 D2 z2 | %40
w: * go burns|A-|midst an|o- cean|full of fly- ing|fish- es, full of|fly- ing fish- es, full of|fly- ing fish- es,|
 B3 A G2 G2 | z2 E2 E3 E | (F4 _D4) | E8 |!mf! E8- | E4 E4 | G8- | G4 G4 | C4 F2 F2 | F4 F4 | %50
w: fly- ing fish- es.|These things seem|won\- *|drous,|yet|* more|won\-|* drous|I, yet more|won- drous|
 F4 z2 B,2 | C2 E2 E2 D2 | E6!mp! E2 | G2 B2 B2 =A2 | B4 z2 B,2 | C4 C4 |"^i?""^:" F8 | z8 | %58
w: I, Whose|heart with fear doth|freeze, whose|heart with fear doth|freeze, with|love doth|fry,||
 z4 z2 B,2 | C2 E2 E2 D2 | E4 B,4 | B,2 C2 _D3 D | C4!p! F4 | =E6 E2 | F4 C4 | F4 (E4- | E4 D4) | %67
w: whose|heart with fear doth|freeze, whose|heart with fear doth|freeze, with|love doth|fry, with|love doth||
 !fermata!E8 |] %68
w: fry.|
V:4
!f! B8 | c3 B c2 d2 | e6 c2 | B2 (B2- Bc d2) | e2 c4 B2- |[M:2/2][K:treble-8] B2 c2 z4 | z8 | %7
w: The|An- da- lu- sian|mer- chant,|that re\- * * *|turns, that re\-|* turns||
 z2 F3 F F2 | B3 A G2 G2 | c2 c2 A2 A2 | z2 B3 B B2 | e3 d c2 c2 | f2 f2 dd B2- | BB B2 e3 d | %14
w: La- den with|co- chi- neal and|Chi- na dish- es,|la- den with|co- chi- neal and|Chi- na dish- es, la\-|* den with co- chi-|
 c2 c2 d2 B2 | dd B3 B B2 | e3 d c2 c2 | f2 f2 BB z2 | z2!mf! B2 B2 G2 | B8 | z4 z2 B2 | E4 F4 | %22
w: neal and Chi- na|dish- es, la- den with|co- chi- neal and|Chi- na dish- es,|Re- ports in|Spain|how|strange- ly|
 F2 B2 E4 | z4 z2 c2- | c2 F4 F2 | G2 c2 c4 | z4 z2 G2 | =A2 _A2 B2 B2 | c6 e2- | e2 d4 _d2 | %30
w: Fo- go burns,|how|* strange- ly|Fo- go burns,|how|strange- ly Fo- go|burns, how|* strange- ly|
 c3 c c4 | z2 F2 =A2 _A2 | G2 c2 c4 |!f! B8 | G4 c4 | B8- | B4 B4 | gfe_d c2 A2 | z2 EF GA B2- | %39
w: Fo- go burns,|how strange- ly|Fo- go burns|A-|midst an|o\-|* cean|full of fly- ing fish- es,|full of fly- ing fish\-|
 B2 E2 z2 B2 | B2 f2 e2 e2 | z2 B2 B3 E | A8 | A8 |!mf! G8- | G4 G4 | G6 G2 | G4 z4 | F4 F2 f2- | %49
w: * es, of|fly- ing fish- es.|These things seem|won-|drous,|yet|* more|won- drous|I,|yet more won\-|
 f2 (e2 c4) | d8 | z8 | z4 z2!mp! e2 | e2 d2 c3 c | B4 z2 d2 | G8 | z4 d4 | c6 c2 | d8 | z8 | %60
w: * drous *|I,||Whose|heart with fear doth|freeze, with|love,|with|love doth|fry,||
 z4 G4 | F2 A2 A2 G2 | A8 | z4!p! G4 | C8 | z4 G4 | B6 B2 | !fermata!B8 |] %68
w: whose|heart with fear doth|freeze,|with|love,|with|love doth|fry.|
V:5
 z8 | z8 | z8 | z4!f! B4 | E3 D E2 F2 |[M:2/2][K:treble-8] G2 A2 B2 (AG) | F2 G4 _A2 | B8 | %8
w: |||The|An- da- lu- sian|mer- chant, that re\- *|turns, that re-|turns|
 B3 B B2 e2- | ed c2 c2 f2 | f2 dd B3 B | B2 e3 d c2- | c2 f2 f2 d2 | ee z2 z4 | z2 F3 F F2 | %15
w: La- den with co\-|* chi- neal and Chi-|na dish- es, la- den|with co- chi- neal|* and Chi- na|dish- es,|la- den with|
 B3 A G2 G2 | c4 =A4 | BB z2 z2!mf! G2 | G2 F2 G4 | z8 | z2 e2 e2 d2 | e2 e2 c4 | _d4 e4- | %23
w: co- chi- neal and|Chi- na|dish- es, Re-|ports in Spaìn,||re- ports in|Spaín how strange-|ly Fo\-|
 e2 e2 A4 | z4 z2 B2- | B2 =A4 _A2 | G6 G2 | F8 | z4 z2 E2 | _G4 F4- | F2 F2 C2 c2 | %31
w: * go burns,|how|* strange- ly|Fo- go|burns,|how|strange- ly|* it burns, how|
 =B2 _B2 z2 c2- | c2 G2 F4 |!f! G8 | B4 F4 | F6 F2 | z2 BA GF G2 | G2 z2 ABcd | e2 e2 EFGA | %39
w: strange- ly Fo\-|* go burns|A-|midst an|o- cean|full of fly- ing fish-|es, full of fly- ing|fish- es, full of fly- ing|
 B2 B2 Bcde | f2 B2 z2 B2 | G6 G2 | F8 | E8 | z4!mf! c4- | c4 e4 | d8- | d4 d4 | f4 B2 B2 | c4 F4 | %50
w: fish- es, full of fly- ing|fish- es. These|things seem|won-|drous,|yet|* more|won\-|* drous|I, yet more|won- drous|
 F4 B4 | A2 G2 F3 F | E8 | z8 | z4!mp! G4 | =E8 | F8- | F8 | B4 B4 | A2 G2 F3 F | E8 | z8 | %62
w: I, Whose|heart with fear doth|freeze,||with|love|doth||fry, whose|heart with fear doth|freeze,||
 z4 z2!p! F2 | c8 | z4 F4- | F4 B4- | B2 (A2 F4) | !fermata!E8 |] %68
w: with|love,|with|* love|* doth *|fry.|
V:6
 z8 | z8 | z8 | z4!f! B,,4 | C,3 B,, C,2 D,2 |[M:2/2] E,2 A,,2 z2 F,2- | F,2 (E,D, C,4) | %7
w: |||The|An- da- lu- sian|mer- chant, that|* re\- * *|
 B,,6 B,,2- | B,,B,, B,,2 E,3 D, | C,2 C,2 F,2 F,2 | B,,B,, z2 z2 E,2- | E,E, E,2 A,3 G, | %12
w: turns La\-|* den with co- chi-|neal and Chi- na|dish- es, la\-|* den with co- chi-|
 F,2 F,2 B,2 B,2 | E,E, E,2 C,4 | F,4 B,,B,, B,,2- | B,,B,, B,,2 E,3 D, | C,2 C,2 F,2 F,2 | %17
w: neal and Chi- na|dish- es, and Chi-|na dish- es, la\-|* den with co- chi-|neal and Chi- na|
 B,,B,, z2 z2!mf! E,2 | E,2 D,2 E,4 | B,,4 E,4 | z8 | z2 C,2 =A,,4 | B,,4 C,3 D, | E,4 z2 F,2- | %24
w: dish- es, Re-|ports in Spain,|in Spain||how strange-|ly Fo- go|burns, how|
 F,2 D,4 _D,2 | C,4 C,4 | C,8 | z4 B,,4 | =A,,2 F,2 C,3 C, | B,,8 | z4 z2 C,2 | G,,2 B,,2 C,3 C, | %32
w: * strange- ly|Fo- go|burns,|how|strange- ly Fo- go|burns,|how|strange- ly Fo- go|
 C,4 z4 |!f! E,8 | E,4 F,4 | B,,6 B,,2 | B,A,G,F, E,2 E,2 | E,_D,C,B,, A,,2 A,,2 | %38
w: burns|A-|midst an|o- cean|full of fly- ing fish- es,|full of fly- ing fish- es,|
 A,,B,,C,=D, E,2 E,2 | E,F,G,A, B,4 | B,,4 z2 E,2 | E,6 E,2 | _D,8 | A,,8 |!mf! C,8- | C,4 C,4 | %46
w: full of fly- ing fish- es,|full of fly- ing fish-|es. These|things seem|won-|drous,|yet|* more|
 G,,8- | G,,4 G,,4 | =A,,4 B,,2 B,,2 | F,6 F,2 | B,,8 | z8 | z8 | z8 | z8 | z8 | z8 | z8 | z8 | %59
w: won\-|* drous|I, yet more|won- drous|I,|||||||||
 z8 | z4!mp! E,4 | _D,2 C,2 B,,3 B,, | A,,8 | z4!p! C,4 | !courtesy!=G,,8 | A,,8- | A,,8 | %67
w: |Whose|heart with fear doth|freeze,|with|love|doth||
 !fermata!E,8 |] %68
w: fry.|

